X:259
T:Anglais efter August Bondeson (SvL Halland 259)
R:Anglais
O:Eftra, Halland
B:Svenska Låtar Halland
S:August Bondeson
Z:Till abc Jonas Brunskog
M:2/4
L:1/16
K:C
c2cd e2c2|d2de f2d2|e2ef g2e2|f2e2 d2d2|
c2cd e2c2|d2de f2d2|Bcde fedc|Bcde c4:|
|:c'2c'g e2g2|c'2c'a f2a2|c'2c'g e2g2|fgaf d2f2|
efge c2e2|defd BcdB|c2ed c4:|

